!!! OTL: Berkowitz531
!!! Chapter: 1
!!! Section: IV
!!! Page: 133
!!! Mode: 
!!! Encoder: DJB
**kern
*staff1
*I"Piano
=1-
*clefG2
*k[f#c#]
*D:
*M3/4
4dd\
4dd\
4dd\
=2
*M3/8
8cc#\L
8b\
8cc#\J
=3
*M2/4
8d/L
16d/L
16e/JJ
8f#/L
16f#/L
16g/JJ
=4
*M3/8
8a\L
8b\
8cc#\J
=5
*M3/4
4dd\
4d/
4ee\
=6
*M5/8
4f#/
8a/
4e/
=7
4f#/
8b\
8a/L
8f#/J
=8
*M3/4
4d/
4e/
4fn/
=9
*M4/4
8r
4e/
8a/
4dd\
4dd\
=10
!!linebreak:original
*M3/8
8cc#\L
8b\
8cc#\J
=11
*M3/4
8d/L
16d/L
16e/JJ
8f#/L
16f#/L
16g/JJ
8a/L
16f#/L
16g/JJ
=12
*M3/8
8a\L
8b\
8cc#\J
=13
*M5/8
8dd\L
8ee\
8dd\J
4f#/
=14
8dd\L
8ee\
8dd\J
8cc#\L
8b\J
=15
8cc#\L
8a\
8b\J
8cc#\L
8b\J
=16
8a/L
8g/
8a/J
8f#/L
8b/J
=17
8a/L
8g/
8f#/J
8e/L
8f#/J
=18
!!linebreak:original
4d/
4e/
8a/
=19
*M2/4
4cc#\
4dd\
=20
*M3/8
8d/L
8e/
8a/J
=21
*M5/8
4cc#\
4dd\
8d/
=22
*M6/8
4dd\
8d/
8cc#\L
8b\
8cc#\J
=23
*M2/4
4dd\
4d/
==
*-
